Papirus/64x64/apps/libreoffice-calc.svg

<?xml version="1.0" encoding="UTF-8" standalone="no"?>
<!-- Created with Inkscape (http://www.inkscape.org/) -->

<svg
   width="64"
   height="64"
   viewBox="0 0 64 64"
   version="1.1"
   id="svg5"
   inkscape:version="1.2.2 (1:1.2.2+202305151914+b0a8486541)"
   sodipodi:docname="libreoffice-calc.svg"
   xmlns:inkscape="http://www.inkscape.org/namespaces/inkscape"
   xmlns:sodipodi="http://sodipodi.sourceforge.net/DTD/sodipodi-0.dtd"
   xmlns="http://www.w3.org/2000/svg"
   xmlns:svg="http://www.w3.org/2000/svg">
  <sodipodi:namedview
     id="namedview7"
     pagecolor="#ffffff"
     bordercolor="#000000"
     borderopacity="0.25"
     inkscape:showpageshadow="2"
     inkscape:pageopacity="0.0"
     inkscape:pagecheckerboard="0"
     inkscape:deskcolor="#d1d1d1"
     inkscape:document-units="px"
     showgrid="false"
     inkscape:zoom="12.96875"
     inkscape:cx="32"
     inkscape:cy="32"
     inkscape:window-width="1920"
     inkscape:window-height="1008"
     inkscape:window-x="0"
     inkscape:window-y="0"
     inkscape:window-maximized="1"
     inkscape:current-layer="svg5" />
  <defs
     id="defs2" />
  <path
     d="M 42,5 H 54 V 17 Z M 18,5 h 20 l 16,16 v 32 c 0,4.432 -3.568,8 -8,8 H 18 c -4.432,0 -8,-3.568 -8,-8 V 13 c 0,-4.432 3.568,-8 8,-8 z"
     style="opacity:0.2;fill:#000000;stroke-width:1;stroke-linecap:square"
     id="path1115"
     sodipodi:nodetypes="ccccsccssssss" />
  <path
     d="m 18,4 h 20 l 16,16 v 32 c 0,4.432 -3.568,8 -8,8 H 18 c -4.432,0 -8,-3.568 -8,-8 V 12 c 0,-4.432 3.568,-8 8,-8 z"
     style="opacity:1;fill:#4ba425;fill-opacity:1;stroke-width:1;stroke-linecap:square"
     id="path1004" />
  <path
     d="M 42,4 H 54 V 16 Z"
     style="fill:#419021;fill-opacity:1;stroke-width:0.75;stroke-linecap:square"
     id="path1087" />
  <path
     d="m 18,25 c -1.108,0 -2,0.892 -2,2 v 14 c 0,1.108 0.892,2 2,2 h 12 v 4 c 0,1.108 0.892,2 2,2 h 14 c 1.10799,0 2,-0.892 2,-2 V 37 c 0,-1.108 -0.89201,-2 -2,-2 h -4 v -8 c 0,-1.108 -0.89201,-2 -2,-2 z m 0,2 h 6 v 2 h -6 z m 8,0 h 6 v 2 h -6 z m 8,0 h 6 v 2 h -6 z m -16,4 h 6 v 2 h -6 z m 8,0 h 6 v 2 h -6 z m 8,0 h 6 v 2 h -6 z m -16,4 h 6 v 2 h -6 z m 8,0 h 6 c -1.108,0 -2,0.892 -2,2 h -4 z m -8,4 h 6 v 2 h -6 z m 8,0 h 4 v 2 h -4 z"
     style="opacity:0.2;fill:#000000"
     id="path3062" />
  <path
     d="m 18,24 c -1.108,0 -2,0.892 -2,2 v 14 c 0,1.108 0.892,2 2,2 h 22 c 1.108,0 2,-0.892 2,-2 V 26 c 0,-1.108 -0.892,-2 -2,-2 z m 0,2 h 6 v 2 h -6 z m 8,0 h 6 v 2 h -6 z m 8,0 h 6 v 2 h -6 z m -16,4 h 6 v 2 h -6 z m 8,0 h 6 v 2 h -6 z m 8,0 h 6 v 2 h -6 z m -16,4 h 6 v 2 h -6 z m 8,0 h 6 v 2 h -6 z m 8,0 h 6 v 2 h -6 z m -16,4 h 6 v 2 h -6 z m 8,0 h 6 v 2 h -6 z m 8,0 h 6 v 2 h -6 z"
     style="fill:#ffffff"
     id="path3034" />
  <rect
     style="fill:#b1e59b;fill-opacity:1;stroke-linecap:square"
     id="rect3110"
     width="18"
     height="14"
     x="29.999992"
     y="34"
     ry="2" />
  <path
     d="m 36,36 v 10 h 2 V 36 Z m -4,2 v 8 h 2 v -8 z m 8,4 v 4 h 2 v -4 z m 4,-2 v 6 h 2 v -6 z"
     style="fill:#5aba30;fill-opacity:1;stroke:none;stroke-width:1.99999"
     id="path3090" />
  <path
     id="path2508"
     style="opacity:0.2;fill:#ffffff;stroke-width:1;stroke-linecap:square"
     d="m 18,4 c -4.431992,0 -8,3.5680092 -8,8 v 1 C 10,8.5680092 13.56801,5 18,5 H 39 L 38,4 Z m 24,0 1,1 H 54 V 4 Z" />
</svg>

<svg xmlns="http://www.w3.org/2000/svg" width="64" height="64" version="1.1">
 <path style="opacity:0.2" d="M 18,5 H 38 L 54,21 V 53 C 54,57.432 50.432,61 46,61 H 18 C 13.568,61 10,57.432 10,53 V 13 C 10,8.568 13.568,5 18,5 Z"/>
 <path style="fill:#4ba425" d="m 18,4 h 20 l 16,16 v 32 c 0,4.432 -3.568,8 -8,8 H 18 c -4.432,0 -8,-3.568 -8,-8 V 12 c 0,-4.432 3.568,-8 8,-8 z"/>
 <rect style="opacity:0.2" width="18" height="14" x="30" y="35" ry="2"/>
 <path style="fill:#419021" d="M 42,4 H 54 V 16 Z"/>
 <path style="opacity:0.2" d="M 18,25 C 16.892,25 16,25.892 16,27 V 41 C 16,42.108 16.892,43 18,43 H 40 C 41.108,43 42,42.108 42,41 V 27 C 42,25.892 41.108,25 40,25 Z M 18,27 H 24 V 29 H 18 Z M 26,27 H 32 V 29 H 26 Z M 34,27 H 40 V 29 H 34 Z M 18,31 H 24 V 33 H 18 Z M 26,31 H 32 V 33 H 26 Z M 34,31 H 40 V 33 H 34 Z M 18,35 H 24 V 37 H 18 Z M 26,35 H 32 V 37 H 26 Z M 34,35 H 40 V 37 H 34 Z M 18,39 H 24 V 41 H 18 Z M 26,39 H 32 V 41 H 26 Z M 34,39 H 40 V 41 H 34 Z"/>
 <path style="fill:#dff6d4" d="M 18,24 C 16.892,24 16,24.892 16,26 V 40 C 16,41.108 16.892,42 18,42 H 40 C 41.108,42 42,41.108 42,40 V 26 C 42,24.892 41.108,24 40,24 Z M 18,26 H 24 V 28 H 18 Z M 26,26 H 32 V 28 H 26 Z M 34,26 H 40 V 28 H 34 Z M 18,30 H 24 V 32 H 18 Z M 26,30 H 32 V 32 H 26 Z M 34,30 H 40 V 32 H 34 Z M 18,34 H 24 V 36 H 18 Z M 26,34 H 32 V 36 H 26 Z M 34,34 H 40 V 36 H 34 Z M 18,38 H 24 V 40 H 18 Z M 26,38 H 32 V 40 H 26 Z M 34,38 H 40 V 40 H 34 Z"/>
 <rect style="fill:#b1e59b" width="18" height="14" x="30" y="34" ry="2"/>
 <path style="fill:#5aba30" d="m 36,36 v 10 h 2 V 36 Z m -4,2 v 8 h 2 v -8 z m 8,4 v 4 h 2 v -4 z m 4,-2 v 6 h 2 v -6 z"/>
 <path style="opacity:0.1;fill:#ffffff" d="M 42,4 43,5 H 54 V 4 Z"/>
 <path style="opacity:0.2;fill:#ffffff" d="M 18 4 C 13.568 4 10 7.568 10 12 L 10 13 C 10 8.568 13.568 5 18 5 L 38 5 L 54 21 L 54 20 L 38 4 L 18 4 z"/>
</svg>
